Newaita-dark/apps/48/killbots.svg

<svg height="48pt" viewBox="0 0 48 48" width="48pt" xmlns="http://www.w3.org/2000/svg" xmlns:xlink="http://www.w3.org/1999/xlink"><linearGradient id="a" gradientUnits="userSpaceOnUse" x1="23.81478" x2="23.81478" y1="42.0509045" y2="44.03547050005"><stop offset="0" stop-opacity=".27451"/><stop offset="1" stop-opacity="0"/></linearGradient><linearGradient id="b"><stop offset="0" stop-opacity=".313725"/><stop offset=".222222" stop-opacity=".27451"/><stop offset="1" stop-opacity="0"/></linearGradient><radialGradient id="c" cx="450.908936" cy="189.579361" gradientTransform="matrix(.00000026 -.117199 -.210958 -.00000015 78.195972 95.392999)" gradientUnits="userSpaceOnUse" r="21.166656" xlink:href="#b"/><radialGradient id="d" cx="450.908936" cy="189.579361" gradientTransform="matrix(-.00000026 .117199 .210958 .00000015 -30.56642 -11.291218)" gradientUnits="userSpaceOnUse" r="21.166656" xlink:href="#b"/><radialGradient id="e" cx="450.908936" cy="189.579361" gradientTransform="matrix(-.00000026 -.117199 .210958 -.00000015 -30.56642 95.392999)" gradientUnits="userSpaceOnUse" r="21.166656" xlink:href="#b"/><radialGradient id="f" cx="450.908936" cy="189.579361" gradientTransform="matrix(.00000026 .117199 -.210958 .00000015 78.195969 -11.291219)" gradientUnits="userSpaceOnUse" r="21.166656" xlink:href="#b"/><linearGradient id="g" gradientUnits="userSpaceOnUse" x1="23.81478459362" x2="23.814786" y1="29.15122549998" y2="4.34415649995"><stop offset="0" stop-color="#ef5350"/><stop offset="1" stop-color="#e57373"/></linearGradient><linearGradient id="h"><stop offset="0" stop-color="#424242"/><stop offset="1" stop-color="#616161"/></linearGradient><linearGradient id="i" gradientUnits="userSpaceOnUse" x1="23.814786" x2="23.814786" xlink:href="#h" y1="26.17437724998" y2="20.22068103125"/><linearGradient id="j" gradientUnits="userSpaceOnUse" x1="23.814786" x2="23.814786" xlink:href="#h" y1="42.0509015" y2="24.189812"/><linearGradient id="k" gradientUnits="userSpaceOnUse" x1="19.84565599995" x2="19.84565599995" y1="42.0509005" y2="24.189811"><stop offset="0" stop-color="#ffa726"/><stop offset="1" stop-color="#ffb74d"/></linearGradient><path d="m8.929688 41.902344h29.769531v2.207031h-29.769531zm0 0" fill="url(#a)"/><path d="m38.699219 42.050781h3.96875v-1.984375h-3.96875zm0 0" fill="url(#c)"/><path d="m8.929688 42.050781h-3.96875v1.984375h3.96875zm0 0" fill="url(#d)"/><path d="m8.929688 42.050781h-3.96875v-1.984375h3.96875zm0 0" fill="url(#e)"/><path d="m38.699219 42.050781h3.96875v1.984375h-3.96875zm0 0" fill="url(#f)"/><path d="m23.816406 4.34375c3.285156 0 5.953125 2.664062 5.953125 5.953125v12.902344c0 3.285156-2.667969 5.953125-5.953125 5.953125-3.289062 0-5.957031-2.667969-5.957031-5.953125v-12.902344c0-3.289063 2.667969-5.953125 5.957031-5.953125zm0 0" fill="url(#g)"/><path d="m23.816406 4.34375c-3.300781 0-5.957031 2.65625-5.957031 5.953125v.992187c0-3.296874 2.65625-5.953124 5.957031-5.953124 3.296875 0 5.953125 2.65625 5.953125 5.953124v-.992187c0-3.296875-2.65625-5.953125-5.953125-5.953125zm0 0" fill="#fff" fill-opacity=".392157"/><path d="m23.816406 4.203125c-3.375 0-6.097656 2.722656-6.097656 6.09375v12.902344c0 3.371093 2.722656 6.09375 6.097656 6.09375 3.371094 0 6.09375-2.722657 6.09375-6.09375v-12.902344c0-3.371094-2.722656-6.09375-6.09375-6.09375zm0 .28125c3.222656 0 5.8125 2.589844 5.8125 5.8125v12.902344c0 3.222656-2.589844 5.8125-5.8125 5.8125s-5.816406-2.589844-5.816406-5.8125v-12.902344c0-3.222656 2.59375-5.8125 5.816406-5.8125zm0 0" fill="#212121"/><path d="m17.859375 20.226562c-.257813.003907-.507813.105469-.695313.289063l-3.96875 3.96875c-.621093.621094-.179687 1.683594.695313 1.683594h19.847656c.875 0 1.316407-1.0625.695313-1.683594l-3.96875-3.96875c-.183594-.183594-.433594-.285156-.695313-.289063zm0 0" fill="url(#i)"/><path d="m17.859375 20.226562c-.257813.003907-.507813.105469-.695313.289063l-.445312.449219h14.195312l-.449218-.449219c-.183594-.183594-.433594-.285156-.695313-.289063zm0 0" fill="#fff" fill-opacity=".392157"/><path d="m190.48181.729399c-2.749738.041663-5.41615 1.124892-7.415959 3.083039l-42.329291 42.329291c-6.624367 6.624367-1.916483 17.956618 7.415959 17.956618h211.688118c9.332442 0 14.040326-11.332251 7.415958-17.956618l-42.329291-42.329291c-1.958146-1.958147-4.624558-3.041376-7.415958-3.083039zm0 0" fill="none" stroke="#212121" stroke-linecap="round" stroke-linejoin="round" stroke-width="3" transform="matrix(.093759 0 0 .093759 0 20.158175)"/><path d="m7.9375 24.191406h31.753906c1.097656 0 1.984375.886719 1.984375 1.984375v13.890625c0 1.097656-.886719 1.984375-1.984375 1.984375h-31.753906c-1.09375 0-1.984375-.886719-1.984375-1.984375v-13.890625c0-1.097656.890625-1.984375 1.984375-1.984375zm0 0" fill="url(#j)"/><path d="m7.9375 24.191406-1.984375 5.953125v9.921875c0 1.097656.886719 1.984375 1.984375 1.984375l5.953125-17.859375zm11.90625 0-5.953125 17.859375h5.953125l5.957031-17.859375zm11.910156 0-5.953125 17.859375h5.953125l5.953125-17.859375zm9.921875 5.953125-3.96875 11.90625h1.984375c1.097656 0 1.984375-.886719 1.984375-1.984375zm0 0" fill="url(#k)"/><path d="m7.9375 24.191406c-1.097656 0-1.984375.882813-1.984375 1.984375v.742188c0-1.097657.886719-1.984375 1.984375-1.984375h31.753906c1.097656 0 1.984375.886718 1.984375 1.984375v-.742188c0-1.101562-.886719-1.984375-1.984375-1.984375zm0 0" fill="#fff" fill-opacity=".392157"/><path d="m7.9375 42.050781c-1.097656 0-1.984375-.886719-1.984375-1.984375v-.746094c0 1.101563.886719 1.988282 1.984375 1.988282h31.753906c1.097656 0 1.984375-.886719 1.984375-1.988282v.746094c0 1.097656-.886719 1.984375-1.984375 1.984375zm0 0" fill-opacity=".235294"/><path d="m319.969461 975.182517-79.992365 239.977095v399.961827c0 44.247745 35.74462 79.992365 79.992365 79.992365l239.977096-719.931287zm479.954192 0-239.977096 719.931287h239.977096l240.134561-719.931287zm480.111657 0-239.977096 719.931287h239.977096l239.977096-719.931287zm399.961827 239.977095-159.984731 479.954192h79.992366c44.247745 0 79.992365-35.74462 79.992365-79.992365zm0 0" fill="none" stroke="#212121" stroke-width="11.338583" transform="scale(.0248071)"/><path d="m7.9375 24.050781c-1.175781 0-2.125.949219-2.125 2.125v13.890625c0 1.175782.949219 2.125 2.125 2.125h31.753906c1.175782 0 2.125-.949218 2.125-2.125v-13.890625c0-1.175781-.949218-2.125-2.125-2.125zm0 .28125h31.753906c1.023438 0 1.84375.816407 1.84375 1.84375v13.890625c0 1.023438-.820312 1.84375-1.84375 1.84375h-31.753906c-1.023438 0-1.84375-.820312-1.84375-1.84375v-13.890625c0-1.027343.820312-1.84375 1.84375-1.84375zm0 0" fill="#212121"/><path d="m19.957031 7.960938c.96875-.96875 2.222657-1.28125 2.804688-.699219s.269531 1.835937-.699219 2.804687-2.226562 1.285156-2.808594.703125c-.582031-.582031-.265625-1.839843.703125-2.808593zm0 0" fill="#fff" fill-opacity=".392157"/><g fill-opacity=".196078"><path d="m24.3125 19.226562c9.765625 1.515626-.726562-9.605468 2.089844-3.050781.886718 2.058594-2.523438 3.199219-2.089844 3.050781zm0 0"/><path d="m23.320312 19.226562c-9.769531 1.515626.726563-9.605468-2.09375-3.050781-.886718 2.058594 2.527344 3.199219 2.09375 3.050781zm0 0"/></g></svg>

<?xml version="1.0" encoding="UTF-8"?>
<svg xmlns="http://www.w3.org/2000/svg" xmlns:xlink="http://www.w3.org/1999/xlink" width="48pt" height="48pt" viewBox="0 0 48 48" version="1.1">
<defs>
<linearGradient id="linear0" gradientUnits="userSpaceOnUse" x1="254" y1="233.5" x2="254" y2="254.666672" gradientTransform="matrix(0.093759,0,0,0.093759,-0.00000572259,20.158178)">
<stop offset="0" style="stop-color:rgb(0%,0%,0%);stop-opacity:0.27451;"/>
<stop offset="1" style="stop-color:rgb(0%,0%,0%);stop-opacity:0;"/>
</linearGradient>
<radialGradient id="radial0" gradientUnits="userSpaceOnUse" cx="450.908936" cy="189.579361" fx="450.908936" fy="189.579361" r="21.166656" gradientTransform="matrix(0.000000261256,-0.117199,-0.210958,-0.000000152308,78.195972,95.392999)">
<stop offset="0" style="stop-color:rgb(0%,0%,0%);stop-opacity:0.313725;"/>
<stop offset="0.222222" style="stop-color:rgb(0%,0%,0%);stop-opacity:0.27451;"/>
<stop offset="1" style="stop-color:rgb(0%,0%,0%);stop-opacity:0;"/>
</radialGradient>
<radialGradient id="radial1" gradientUnits="userSpaceOnUse" cx="450.908936" cy="189.579361" fx="450.908936" fy="189.579361" r="21.166656" gradientTransform="matrix(-0.000000261256,0.117199,0.210958,0.000000152308,-30.56642,-11.291218)">
<stop offset="0" style="stop-color:rgb(0%,0%,0%);stop-opacity:0.313725;"/>
<stop offset="0.222222" style="stop-color:rgb(0%,0%,0%);stop-opacity:0.27451;"/>
<stop offset="1" style="stop-color:rgb(0%,0%,0%);stop-opacity:0;"/>
</radialGradient>
<radialGradient id="radial2" gradientUnits="userSpaceOnUse" cx="450.908936" cy="189.579361" fx="450.908936" fy="189.579361" r="21.166656" gradientTransform="matrix(-0.000000261256,-0.117199,0.210958,-0.000000152308,-30.56642,95.392999)">
<stop offset="0" style="stop-color:rgb(0%,0%,0%);stop-opacity:0.313725;"/>
<stop offset="0.222222" style="stop-color:rgb(0%,0%,0%);stop-opacity:0.27451;"/>
<stop offset="1" style="stop-color:rgb(0%,0%,0%);stop-opacity:0;"/>
</radialGradient>
<radialGradient id="radial3" gradientUnits="userSpaceOnUse" cx="450.908936" cy="189.579361" fx="450.908936" fy="189.579361" r="21.166656" gradientTransform="matrix(0.000000261256,0.117199,-0.210958,0.000000152308,78.195969,-11.291219)">
<stop offset="0" style="stop-color:rgb(0%,0%,0%);stop-opacity:0.313725;"/>
<stop offset="0.222222" style="stop-color:rgb(0%,0%,0%);stop-opacity:0.27451;"/>
<stop offset="1" style="stop-color:rgb(0%,0%,0%);stop-opacity:0;"/>
</radialGradient>
<linearGradient id="linear1" gradientUnits="userSpaceOnUse" x1="253.999985" y1="95.916664" x2="254" y2="-168.666672" gradientTransform="matrix(0.093759,0,0,0.093759,0,20.158175)">
<stop offset="0" style="stop-color:rgb(93.72549%,32.54902%,31.372549%);stop-opacity:1;"/>
<stop offset="1" style="stop-color:rgb(89.803922%,45.098039%,45.098039%);stop-opacity:1;"/>
</linearGradient>
<linearGradient id="linear2" gradientUnits="userSpaceOnUse" x1="254" y1="64.166664" x2="254" y2="0.666667" gradientTransform="matrix(0.093759,0,0,0.093759,0,20.158175)">
<stop offset="0" style="stop-color:rgb(25.882353%,25.882353%,25.882353%);stop-opacity:1;"/>
<stop offset="1" style="stop-color:rgb(38.039216%,38.039216%,38.039216%);stop-opacity:1;"/>
</linearGradient>
<linearGradient id="linear3" gradientUnits="userSpaceOnUse" x1="254" y1="233.5" x2="254" y2="43" gradientTransform="matrix(0.093759,0,0,0.093759,0,20.158175)">
<stop offset="0" style="stop-color:rgb(25.882353%,25.882353%,25.882353%);stop-opacity:1;"/>
<stop offset="1" style="stop-color:rgb(38.039216%,38.039216%,38.039216%);stop-opacity:1;"/>
</linearGradient>
<linearGradient id="linear4" gradientUnits="userSpaceOnUse" x1="232.833328" y1="233.5" x2="232.833328" y2="43" gradientTransform="matrix(0.093759,0,0,0.093759,-1.984564,20.158174)">
<stop offset="0" style="stop-color:rgb(100%,65.490196%,14.901961%);stop-opacity:1;"/>
<stop offset="1" style="stop-color:rgb(100%,71.764706%,30.196078%);stop-opacity:1;"/>
</linearGradient>
</defs>
<g id="surface1">
<path style=" stroke:none;fill-rule:nonzero;fill:url(#linear0);" d="M 8.929688 41.902344 L 38.699219 41.902344 L 38.699219 44.109375 L 8.929688 44.109375 Z M 8.929688 41.902344 "/>
<path style=" stroke:none;fill-rule:nonzero;fill:url(#radial0);" d="M 38.699219 42.050781 L 42.667969 42.050781 L 42.667969 40.066406 L 38.699219 40.066406 Z M 38.699219 42.050781 "/>
<path style=" stroke:none;fill-rule:nonzero;fill:url(#radial1);" d="M 8.929688 42.050781 L 4.960938 42.050781 L 4.960938 44.035156 L 8.929688 44.035156 Z M 8.929688 42.050781 "/>
<path style=" stroke:none;fill-rule:nonzero;fill:url(#radial2);" d="M 8.929688 42.050781 L 4.960938 42.050781 L 4.960938 40.066406 L 8.929688 40.066406 Z M 8.929688 42.050781 "/>
<path style=" stroke:none;fill-rule:nonzero;fill:url(#radial3);" d="M 38.699219 42.050781 L 42.667969 42.050781 L 42.667969 44.035156 L 38.699219 44.035156 Z M 38.699219 42.050781 "/>
<path style=" stroke:none;fill-rule:nonzero;fill:url(#linear1);" d="M 23.816406 4.34375 C 27.101562 4.34375 29.769531 7.007812 29.769531 10.296875 L 29.769531 23.199219 C 29.769531 26.484375 27.101562 29.152344 23.816406 29.152344 C 20.527344 29.152344 17.859375 26.484375 17.859375 23.199219 L 17.859375 10.296875 C 17.859375 7.007812 20.527344 4.34375 23.816406 4.34375 Z M 23.816406 4.34375 "/>
<path style=" stroke:none;fill-rule:nonzero;fill:rgb(100%,100%,100%);fill-opacity:0.392157;" d="M 23.816406 4.34375 C 20.515625 4.34375 17.859375 7 17.859375 10.296875 L 17.859375 11.289062 C 17.859375 7.992188 20.515625 5.335938 23.816406 5.335938 C 27.113281 5.335938 29.769531 7.992188 29.769531 11.289062 L 29.769531 10.296875 C 29.769531 7 27.113281 4.34375 23.816406 4.34375 Z M 23.816406 4.34375 "/>
<path style=" stroke:none;fill-rule:nonzero;fill:rgb(12.941177%,12.941177%,12.941177%);fill-opacity:1;" d="M 23.816406 4.203125 C 20.441406 4.203125 17.71875 6.925781 17.71875 10.296875 L 17.71875 23.199219 C 17.71875 26.570312 20.441406 29.292969 23.816406 29.292969 C 27.1875 29.292969 29.910156 26.570312 29.910156 23.199219 L 29.910156 10.296875 C 29.910156 6.925781 27.1875 4.203125 23.816406 4.203125 Z M 23.816406 4.484375 C 27.039062 4.484375 29.628906 7.074219 29.628906 10.296875 L 29.628906 23.199219 C 29.628906 26.421875 27.039062 29.011719 23.816406 29.011719 C 20.59375 29.011719 18 26.421875 18 23.199219 L 18 10.296875 C 18 7.074219 20.59375 4.484375 23.816406 4.484375 Z M 23.816406 4.484375 "/>
<path style=" stroke:none;fill-rule:nonzero;fill:url(#linear2);" d="M 17.859375 20.226562 C 17.601562 20.230469 17.351562 20.332031 17.164062 20.515625 L 13.195312 24.484375 C 12.574219 25.105469 13.015625 26.167969 13.890625 26.167969 L 33.738281 26.167969 C 34.613281 26.167969 35.054688 25.105469 34.433594 24.484375 L 30.464844 20.515625 C 30.28125 20.332031 30.03125 20.230469 29.769531 20.226562 Z M 17.859375 20.226562 "/>
<path style=" stroke:none;fill-rule:nonzero;fill:rgb(100%,100%,100%);fill-opacity:0.392157;" d="M 17.859375 20.226562 C 17.601562 20.230469 17.351562 20.332031 17.164062 20.515625 L 16.71875 20.964844 L 30.914062 20.964844 L 30.464844 20.515625 C 30.28125 20.332031 30.03125 20.230469 29.769531 20.226562 Z M 17.859375 20.226562 "/>
<path style="fill:none;stroke-width:3;stroke-linecap:round;stroke-linejoin:round;stroke:rgb(12.941177%,12.941177%,12.941177%);stroke-opacity:1;stroke-miterlimit:4;" d="M 190.48181 0.729399 C 187.732072 0.771062 185.06566 1.854291 183.065851 3.812438 L 140.73656 46.141729 C 134.112193 52.766096 138.820077 64.098347 148.152519 64.098347 L 359.840637 64.098347 C 369.173079 64.098347 373.880963 52.766096 367.256595 46.141729 L 324.927304 3.812438 C 322.969158 1.854291 320.302746 0.771062 317.511346 0.729399 Z M 190.48181 0.729399 " transform="matrix(0.093759,0,0,0.093759,0,20.158175)"/>
<path style=" stroke:none;fill-rule:nonzero;fill:url(#linear3);" d="M 7.9375 24.191406 L 39.691406 24.191406 C 40.789062 24.191406 41.675781 25.078125 41.675781 26.175781 L 41.675781 40.066406 C 41.675781 41.164062 40.789062 42.050781 39.691406 42.050781 L 7.9375 42.050781 C 6.84375 42.050781 5.953125 41.164062 5.953125 40.066406 L 5.953125 26.175781 C 5.953125 25.078125 6.84375 24.191406 7.9375 24.191406 Z M 7.9375 24.191406 "/>
<path style=" stroke:none;fill-rule:nonzero;fill:url(#linear4);" d="M 7.9375 24.191406 L 5.953125 30.144531 L 5.953125 40.066406 C 5.953125 41.164062 6.839844 42.050781 7.9375 42.050781 L 13.890625 24.191406 Z M 19.84375 24.191406 L 13.890625 42.050781 L 19.84375 42.050781 L 25.800781 24.191406 Z M 31.753906 24.191406 L 25.800781 42.050781 L 31.753906 42.050781 L 37.707031 24.191406 Z M 41.675781 30.144531 L 37.707031 42.050781 L 39.691406 42.050781 C 40.789062 42.050781 41.675781 41.164062 41.675781 40.066406 Z M 41.675781 30.144531 "/>
<path style=" stroke:none;fill-rule:nonzero;fill:rgb(100%,100%,100%);fill-opacity:0.392157;" d="M 7.9375 24.191406 C 6.839844 24.191406 5.953125 25.074219 5.953125 26.175781 L 5.953125 26.917969 C 5.953125 25.820312 6.839844 24.933594 7.9375 24.933594 L 39.691406 24.933594 C 40.789062 24.933594 41.675781 25.820312 41.675781 26.917969 L 41.675781 26.175781 C 41.675781 25.074219 40.789062 24.191406 39.691406 24.191406 Z M 7.9375 24.191406 "/>
<path style=" stroke:none;fill-rule:nonzero;fill:rgb(0%,0%,0%);fill-opacity:0.235294;" d="M 7.9375 42.050781 C 6.839844 42.050781 5.953125 41.164062 5.953125 40.066406 L 5.953125 39.320312 C 5.953125 40.421875 6.839844 41.308594 7.9375 41.308594 L 39.691406 41.308594 C 40.789062 41.308594 41.675781 40.421875 41.675781 39.320312 L 41.675781 40.066406 C 41.675781 41.164062 40.789062 42.050781 39.691406 42.050781 Z M 7.9375 42.050781 "/>
<path style="fill:none;stroke-width:11.338583;stroke-linecap:butt;stroke-linejoin:miter;stroke:rgb(12.941177%,12.941177%,12.941177%);stroke-opacity:1;stroke-miterlimit:4;" d="M 319.969461 975.182517 L 239.977096 1215.159612 L 239.977096 1615.121439 C 239.977096 1659.369184 275.721716 1695.113804 319.969461 1695.113804 L 559.946557 975.182517 Z M 799.923653 975.182517 L 559.946557 1695.113804 L 799.923653 1695.113804 L 1040.058214 975.182517 Z M 1280.03531 975.182517 L 1040.058214 1695.113804 L 1280.03531 1695.113804 L 1520.012406 975.182517 Z M 1679.997137 1215.159612 L 1520.012406 1695.113804 L 1600.004772 1695.113804 C 1644.252517 1695.113804 1679.997137 1659.369184 1679.997137 1615.121439 Z M 1679.997137 1215.159612 " transform="matrix(0.0248071,0,0,0.0248071,0,0)"/>
<path style=" stroke:none;fill-rule:nonzero;fill:rgb(12.941177%,12.941177%,12.941177%);fill-opacity:1;" d="M 7.9375 24.050781 C 6.761719 24.050781 5.8125 25 5.8125 26.175781 L 5.8125 40.066406 C 5.8125 41.242188 6.761719 42.191406 7.9375 42.191406 L 39.691406 42.191406 C 40.867188 42.191406 41.816406 41.242188 41.816406 40.066406 L 41.816406 26.175781 C 41.816406 25 40.867188 24.050781 39.691406 24.050781 Z M 7.9375 24.332031 L 39.691406 24.332031 C 40.714844 24.332031 41.535156 25.148438 41.535156 26.175781 L 41.535156 40.066406 C 41.535156 41.089844 40.714844 41.910156 39.691406 41.910156 L 7.9375 41.910156 C 6.914062 41.910156 6.09375 41.089844 6.09375 40.066406 L 6.09375 26.175781 C 6.09375 25.148438 6.914062 24.332031 7.9375 24.332031 Z M 7.9375 24.332031 "/>
<path style=" stroke:none;fill-rule:nonzero;fill:rgb(100%,100%,100%);fill-opacity:0.392157;" d="M 19.957031 7.960938 C 20.925781 6.992188 22.179688 6.679688 22.761719 7.261719 C 23.34375 7.84375 23.03125 9.097656 22.0625 10.066406 C 21.09375 11.035156 19.835938 11.351562 19.253906 10.769531 C 18.671875 10.1875 18.988281 8.929688 19.957031 7.960938 Z M 19.957031 7.960938 "/>
<path style=" stroke:none;fill-rule:nonzero;fill:rgb(0%,0%,0%);fill-opacity:0.196078;" d="M 24.3125 19.226562 C 34.078125 20.742188 23.585938 9.621094 26.402344 16.175781 C 27.289062 18.234375 23.878906 19.375 24.3125 19.226562 Z M 24.3125 19.226562 "/>
<path style=" stroke:none;fill-rule:nonzero;fill:rgb(0%,0%,0%);fill-opacity:0.196078;" d="M 23.320312 19.226562 C 13.550781 20.742188 24.046875 9.621094 21.226562 16.175781 C 20.339844 18.234375 23.753906 19.375 23.320312 19.226562 Z M 23.320312 19.226562 "/>
</g>
</svg>
